public/icons/grid.svg

<svg width="24" height="24" viewBox="0 0 24 24" fill="none" xmlns="http://www.w3.org/2000/svg"><path d="M10 3H3v7h7V3zM21 3h-7v7h7V3zM21 14h-7v7h7v-7zM10 14H3v7h7v-7z" stroke="#44797B" stroke-width="2" stroke-linecap="round" stroke-linejoin="round"/></svg>

<svg width="24" height="24" viewBox="0 0 24 24" fill="none"
    xmlns="http://www.w3.org/2000/svg">
    <path d="M10 3H3V10H10V3Z" stroke="#44797B" stroke-width="2" stroke-linecap="round" stroke-linejoin="round"/>
    <path d="M21 3H14V10H21V3Z" stroke="#44797B" stroke-width="2" stroke-linecap="round" stroke-linejoin="round"/>
    <path d="M21 14H14V21H21V14Z" stroke="#44797B" stroke-width="2" stroke-linecap="round" stroke-linejoin="round"/>
    <path d="M10 14H3V21H10V14Z" stroke="#44797B" stroke-width="2" stroke-linecap="round" stroke-linejoin="round"/>
</svg>
